X:757
T:"Schlaraffenland"
T:(Totakt-pols, nr. JCN-344)
R:Totakt-pols
O:Ribe amt, Danmark
N:Melodin med stämma, såsom den (med variationer) spelas på CD:n Totakt-pols.
N:Andrastämman av Åke Persson
M:2/4
L:1/16
Q:1/4=100
K:D
V:1
|:A2F2 ABA2|A2d2 d4|e2c2 efg2|g2f2 f4|A2F2 ABA2|A2d2 d4|cdef gfge|[1 d4 z2 A2:|[2d4 z2 f2]|
|:g2bg e2g2|f2af d2f2|g2gf g2e2|a2a^g a2f2|g2g2 efg2|g2f2 !tenuto!d4|efge d2c2|[1 d4 z2 f2:|[2 d4 z4]|
V:2
|:F2D2 FGF2|F2A2 d4|c2A2 cde2|e2d2 d4|F2D2 FGF2|F2A2 d4|(cd)cB (AB)AG|[1 F4 z2 F2:|[2F4 z2 F2]|
|:[G,2G2](BG) A2[A2c2]|[D2d2](fd) A2d2|[A2e2](ed) e2c2|[A2f2](fe) f2d2|[A2e2]e2 cde2|e2d2 !tenuto![F4A4]|(cd)ec A2G2|[1 [F4A4] z2 F2:|[2 [F4A4] z4]|
(:musicend:)

Ingår i kategorin [[!andrastämma]].

(:music:)
